X: 1
T: Gan Ainm
M: 3/4
L: 1/8
R: mazurka
K: Dmaj
F/G/|:AA d/c/ BB E/F/|GG c/B/ AA F/G/|AA d/c/ BB e/d/|
[1 cc B/c/ dd F/G/:|2 cc B/c/ dd c/d/||
|:ee ef fB/c/|dd de ee|cc B/c/ dd c/d/|
[1 e/f/  e/d/  c/B/ cA c/d/:|2 e/f/ e/d/  c/B/ A/B/ A/G/ F/G/||
